Assets/svg/CSS-icon.svg

<?xml version="1.0" encoding="UTF-8"?><svg xmlns="http://www.w3.org/2000/svg" xmlns:xlink="http://www.w3.org/1999/xlink" viewBox="0 0 24 24"><defs><style>.f{fill:url(#d);}.g{fill:url(#e);}</style><linearGradient id="d" x1="8.4" y1="13.54" x2="15.59" y2="13.54" gradientTransform="matrix(1, 0, 0, 1, 0, 0)" gradientUnits="userSpaceOnUse"><stop offset="0" stop-color="#2f1cef"/><stop offset="1" stop-color="#4933fd"/></linearGradient><linearGradient id="e" x1="0" y1="12" x2="24" y2="12" xlink:href="#d"/></defs><g id="a"/><g id="b"><g id="c"><g><polygon class="f" points="8.53 10.92 8.4 9.48 15.59 9.48 15.33 12.39 15.3 12.77 14.96 16.55 14.94 16.79 12 17.61 12 17.61 11.99 17.61 9.05 16.79 8.85 14.54 10.29 14.54 10.4 15.68 11.99 16.12 12 16.12 12 16.11 13.6 15.68 13.76 13.82 8.79 13.82 8.66 12.39 13.89 12.39 14.02 10.92 8.53 10.92"/><path class="g" d="M17.14,0H6.86C3.07,0,0,3.07,0,6.86v10.29c0,3.79,3.07,6.86,6.86,6.86h10.29c3.78,0,6.86-3.07,6.86-6.86V6.86c0-3.79-3.08-6.86-6.86-6.86Zm-4,5.46h1.01v-.13h-1.01v-1.42h1.74v.63h-1.01v.13h1.01v1.45h-1.74v-.66Zm-2.09,0h1.01v-.13h-1.01v-1.42h1.74v.63h-1.01v.13h1.01v1.45h-1.74v-.66Zm-2.09-1.55h1.74v.73h-1.01v.73h1.01v.73h-1.74V3.91Zm7.72,14.88l-4.7,1.3-4.68-1.3-1.04-11.7h11.47l-1.04,11.7Z"/></g></g></g></svg>

<?xml version="1.0" encoding="utf-8"?>
<!-- Generator: Adobe Illustrator 27.3.1, SVG Export Plug-In . SVG Version: 6.00 Build 0)  -->
<svg version="1.1" id="Layer_1" xmlns="http://www.w3.org/2000/svg" xmlns:xlink="http://www.w3.org/1999/xlink" x="0px" y="0px"
	 viewBox="0 0 24 24" style="enable-background:new 0 0 24 24;" xml:space="preserve">
<style type="text/css">
	.st0{fill:#3498DB;}
</style>
<g id="a">
</g>
<g id="b">
	<g id="c">
		<g>
			<polygon class="st0" points="8.5,10.9 8.4,9.5 15.6,9.5 15.3,12.4 15.3,12.8 15,16.5 14.9,16.8 12,17.6 12,17.6 12,17.6 
				9.1,16.8 8.9,14.5 10.3,14.5 10.4,15.7 12,16.1 12,16.1 12,16.1 13.6,15.7 13.8,13.8 8.8,13.8 8.7,12.4 13.9,12.4 14,10.9 			"/>
			<path class="st0" d="M17.1,0H6.9C3.1,0,0,3.1,0,6.9v10.3C0,20.9,3.1,24,6.9,24h10.3c3.8,0,6.9-3.1,6.9-6.9V6.9
				C24,3.1,20.9,0,17.1,0L17.1,0z M13.1,5.5h1V5.3h-1V3.9h1.7v0.6h-1v0.1h1v1.4h-1.7V5.5z M11,5.5h1V5.3h-1V3.9h1.7v0.6h-1v0.1h1
				v1.4H11V5.5z M9,3.9h1.7v0.7h-1v0.7h1v0.7H9V3.9z M16.7,18.8L12,20.1l-4.7-1.3l-1-11.7h11.5L16.7,18.8L16.7,18.8z"/>
		</g>
	</g>
</g>
</svg>
